img/vector-13.svg

<svg fill="none" height="17" viewBox="0 0 26 17" width="26" xmlns="http://www.w3.org/2000/svg"><path d="m23.9671 8.75298 1.0766 6.14972c.1411.8054-.3931 1.574-1.1972 1.7227-.6492.12-1.3001-.2014-1.5995-.7899l-2.6615-5.2326c-1.373-2.69953-4.4879-4.02141-7.3834-3.13341l-3.03688.93132c-2.27634.6981-4.72942-.3036-5.86648-2.39553l-3.207001-5.900128 17.215361 2.265068c3.376.44419 6.0728 3.0287 6.66 6.38276z" fill="#0d06c1"/></svg>

<svg width="26" height="17" viewBox="0 0 26 17" fill="none" xmlns="http://www.w3.org/2000/svg">
<path d="M23.9671 8.75298L25.0437 14.9027C25.1848 15.7081 24.6506 16.4767 23.8465 16.6254C23.1973 16.7454 22.5464 16.424 22.247 15.8355L19.5855 10.6029C18.2125 7.90337 15.0976 6.58149 12.2021 7.46949L9.16522 8.40081C6.88888 9.09891 4.4358 8.09721 3.29874 6.00528L0.091739 0.105152L17.3071 2.37022C20.6831 2.81441 23.3799 5.39892 23.9671 8.75298Z" fill="#0D06C1"/>
</svg>
